packages/components/src/telekom/icons/weather/cloudy-thunder-snow/selected.svg

<?xml version="1.0" encoding="UTF-8"?>
<svg width="24px" height="24px" viewBox="0 0 24 24" version="1.1" xmlns="http://www.w3.org/2000/svg" xmlns:xlink="http://www.w3.org/1999/xlink">
    <title>icon/weather/cloudy-thunder-snow/selected</title>
    <g id="icon/weather/cloudy-thunder-snow/selected" stroke="none" stroke-width="1" fill="none" fill-rule="evenodd">
        <path d="M8.81015,15.19995 L6.24815,18.79995 L8.73515,18.79995 L3.68865,22.87795 C3.5613,22.981 3.39345,22.84915 3.4355115,22.7116705 L3.45765,22.66595 L5.26315,19.99995 L3.35115,19.99995 L6.01265,15.19995 L8.81015,15.19995 Z M12.28115,15.02145 L13.32015,15.62145 L12.63965,16.79995 L14.00065,16.79995 L14.00065,17.99995 L12.63965,17.99995 L13.32015,19.17845 L12.28115,19.77845 L11.60065,18.59995 L10.92015,19.77845 L9.88115,19.17845 L10.56115,17.99995 L9.20065,17.99995 L9.20065,16.79995 L10.56115,16.79995 L9.88115,15.62145 L10.92015,15.02145 L11.60065,16.19995 L12.28115,15.02145 Z M10.50965,5.94995 C12.86365,5.94995 14.93715,7.41695 15.74265,9.62395 C17.12365,10.35145 18.00365,11.79845 18.00365,13.37695 C18.00365,15.10639 16.96685,16.5934492 15.4877926,17.2506629 L15.30065,17.32845 L15.30065,15.84245 C15.30065,15.5242278 15.1493414,15.2273389 14.8976431,15.0402772 L14.79865,14.97545 L12.09815,13.42495 C11.82865,13.270075 11.5047906,13.2507156 11.2213658,13.3668719 L11.10265,13.42495 L10.27515,13.89995 L5.24665,13.89995 L3.32265,17.37045 C1.85465,16.82745 0.80365,15.40995 0.80365,13.74595 C0.80365,12.34645 1.55865,11.06245 2.75565,10.38045 C2.85765,8.55845 4.36315,7.10745 6.19865,7.10745 C6.46915,7.10745 6.73815,7.14045 7.00415,7.20545 C7.99715,6.39345 9.23065,5.94995 10.50965,5.94995 Z M19.74715,10.54645 C19.95515,10.33845 20.278508,10.3153389 20.5121431,10.4771167 L20.59515,10.54645 L21.44465,11.39495 C21.67915,11.62895 21.67915,12.00945 21.44465,12.24345 C21.32715,12.36095 21.17365,12.41945 21.02015,12.41945 C20.89735,12.41945 20.77455,12.38169 20.670182,12.306682 L20.59565,12.24345 L19.74715,11.39545 C19.51265,11.16095 19.51265,10.78045 19.74715,10.54645 Z M16.60065,4.39995 C18.25515,4.39995 19.60065,5.74545 19.60065,7.39995 C19.60065,8.53195 18.97015,9.51845 18.04265,10.02945 C17.66865,9.54945 17.22015,9.12545 16.69865,8.79045 C16.13315,7.52745 15.20815,6.49545 14.07115,5.79395 C14.60365,4.95745 15.53715,4.39995 16.60065,4.39995 Z M22.85065,6.79995 C23.18165,6.79995 23.45065,7.06845 23.45065,7.39995 C23.45065,7.6983 23.23276,7.94562 22.947883,7.9921005 L22.85065,7.99995 L21.65065,7.99995 C21.31915,7.99995 21.05065,7.73145 21.05065,7.39995 C21.05065,7.1016 21.268135,6.85428 21.5532955,6.8077995 L21.65065,6.79995 L22.85065,6.79995 Z M11.75715,2.55645 C11.9655944,2.34845 12.2886068,2.32533889 12.5225108,2.48711667 L12.60565,2.55645 L13.45465,3.40495 C13.68915,3.63945 13.68915,4.01945 13.45465,4.25345 C13.33715,4.37095 13.18365,4.42945 13.03015,4.42945 C12.90735,4.42945 12.78455,4.39169 12.680182,4.316682 L12.60565,4.25345 L11.75715,3.40495 C11.52315,3.17095 11.52315,2.79045 11.75715,2.55645 Z M20.59615,2.55645 C20.83065,2.32245 21.21015,2.32195 21.44465,2.55645 C21.6530944,2.76489444 21.6762549,3.08830185 21.5141315,3.32194246 L21.44465,3.40495 L20.59565,4.25345 C20.47865,4.37095 20.32515,4.42945 20.17115,4.42945 C20.01765,4.42945 19.86415,4.37045 19.74715,4.25345 C19.53915,4.04545 19.5160389,3.72209198 19.6778167,3.48810569 L19.74715,3.40495 L20.59615,2.55645 Z M16.60065,0.54995 C16.89855,0.54995 17.14623,0.767435 17.192787,1.0525955 L17.20065,1.14995 L17.20065,2.34995 C17.20065,2.68145 16.93165,2.94995 16.60065,2.94995 C16.3023,2.94995 16.05498,2.732465 16.0084995,2.4473045 L16.00065,2.34995 L16.00065,1.14995 C16.00065,0.81845 16.26915,0.54995 16.60065,0.54995 Z" id="Shape" fill="#262626"></path>
    </g>
</svg>

<svg width="24" height="24" xmlns="http://www.w3.org/2000/svg"><path d="M8.81 15.2l-2.562 3.6h2.487L3.69 22.878c-.128.103-.296-.029-.253-.166l.022-.046L5.263 20H3.351l2.662-4.8H8.81zm3.471-.179l1.04.6-.681 1.179H14V18h-1.36l.68 1.178-1.039.6-.68-1.178-.68 1.178-1.04-.6.68-1.178h-1.36v-1.2h1.36l-.68-1.179 1.04-.6.68 1.179.68-1.179zM10.51 5.95a5.56 5.56 0 015.233 3.674 4.25 4.25 0 012.26 3.753 4.24 4.24 0 01-2.515 3.874l-.187.077v-1.486a1 1 0 00-.403-.802l-.1-.065-2.7-1.55a1 1 0 00-.877-.058l-.118.058-.828.475H5.247l-1.924 3.47a3.865 3.865 0 01-2.52-3.624c0-1.4.756-2.684 1.953-3.366.102-1.822 1.607-3.273 3.443-3.273.27 0 .54.033.805.098A5.53 5.53 0 0110.51 5.95zm9.237 4.596a.6.6 0 01.765-.069l.083.07.85.848a.6.6 0 01-.775.912l-.074-.064-.849-.848a.6.6 0 010-.849zM16.601 4.4c1.654 0 3 1.345 3 3 0 1.132-.63 2.118-1.558 2.63a5.43 5.43 0 00-1.344-1.24 6.768 6.768 0 00-2.628-2.996 2.997 2.997 0 012.53-1.394zm6.25 2.4a.6.6 0 01.097 1.192L22.85 8h-1.2a.6.6 0 01-.098-1.192l.098-.008h1.2zM11.757 2.556a.6.6 0 01.766-.069l.083.07.849.848a.6.6 0 01-.775.912l-.074-.064-.849-.848a.6.6 0 010-.849zm8.84 0a.6.6 0 01.917.766l-.07.083-.848.848a.596.596 0 01-.849 0 .6.6 0 01-.07-.765l.07-.083.85-.849zM16.6.55a.6.6 0 01.592.503l.008.097v1.2a.6.6 0 01-1.193.097l-.007-.097v-1.2a.6.6 0 01.6-.6z" fill="#000" fill-rule="evenodd"/></svg>
